contributed-vectors/google_lens.svg

<svg xmlns="http://www.w3.org/2000/svg" xml:space="preserve" style="fill-rule:evenodd;clip-rule:evenodd;stroke-linejoin:round;stroke-miterlimit:2" viewBox="0 0 192 192"><path d="M164.5 21.5c0-5.519-4.481-10-10-10h-133c-5.519 0-10 4.481-10 10v133c0 5.519 4.481 10 10 10h133c5.519 0 10-4.481 10-10v-133Z" style="fill:#fff" transform="translate(8 8)"/><path d="M106.081 53.088h9.479c12.99 0 23.521 10.531 23.521 23.521v9.479h-11.844v-8.999c0-6.714-5.443-12.157-12.157-12.157h-8.999V53.088Z" style="fill:#f9de81"/><path d="M86.081 53.088v11.844h-8.999c-6.715 0-12.158 5.443-12.158 12.157v8.999H53.081v-9.479c0-12.99 10.53-23.521 23.521-23.521h9.479Z" style="fill:#ff837d"/><path d="M64.924 106.088v8.999c0 6.715 5.443 12.158 12.158 12.158h8.999v11.843h-9.479c-12.991 0-23.521-10.53-23.521-23.521v-9.479h11.843Z" style="fill:#9abeff"/><circle cx="96" cy="96" r="16.815" style="fill:#9abeff"/><circle cx="96" cy="96" r="16.815" style="fill:#98dc9a" transform="matrix(.5735 0 0 .5735 69.63 69.688)"/></svg>

<?xml version="1.0" encoding="UTF-8" standalone="no"?>
<!DOCTYPE svg PUBLIC "-//W3C//DTD SVG 1.1//EN" "http://www.w3.org/Graphics/SVG/1.1/DTD/svg11.dtd">
<svg width="100%" height="100%" viewBox="0 0 192 192" version="1.1" xmlns="http://www.w3.org/2000/svg" xmlns:xlink="http://www.w3.org/1999/xlink" xml:space="preserve" xmlns:serif="http://www.serif.com/" style="fill-rule:evenodd;clip-rule:evenodd;stroke-linejoin:round;stroke-miterlimit:2;">
    <g id="Layer1">
        <g transform="matrix(1,0,0,1,8,8)">
            <path d="M164.5,21.5C164.5,15.981 160.019,11.5 154.5,11.5L21.5,11.5C15.981,11.5 11.5,15.981 11.5,21.5L11.5,154.5C11.5,160.019 15.981,164.5 21.5,164.5L154.5,164.5C160.019,164.5 164.5,160.019 164.5,154.5L164.5,21.5Z" style="fill:white;"/>
        </g>
        <path d="M106.081,53.088L115.56,53.088C128.55,53.088 139.081,63.619 139.081,76.609L139.081,86.088L127.237,86.088L127.237,77.089C127.237,70.375 121.794,64.932 115.08,64.932L106.081,64.932L106.081,53.088Z" style="fill:rgb(249,222,129);"/>
        <path d="M86.081,53.088L86.081,64.932L77.082,64.932C70.367,64.932 64.924,70.375 64.924,77.089L64.924,86.088L53.081,86.088L53.081,76.609C53.081,63.619 63.611,53.088 76.602,53.088L86.081,53.088Z" style="fill:rgb(255,131,125);"/>
        <path d="M64.924,106.088L64.924,115.087C64.924,121.802 70.367,127.245 77.082,127.245L86.081,127.245L86.081,139.088L76.602,139.088C63.611,139.088 53.081,128.558 53.081,115.567L53.081,106.088L64.924,106.088Z" style="fill:rgb(154,190,255);"/>
        <circle cx="96" cy="96" r="16.815" style="fill:rgb(154,190,255);"/>
        <g transform="matrix(0.573505,0,0,0.573505,69.63,69.6883)">
            <circle cx="96" cy="96" r="16.815" style="fill:rgb(152,220,154);"/>
        </g>
    </g>
</svg>
